packages/kaspersky-hexa-ui-icons/src/iconsSVGs/24/Forward.svg

<svg width="24" height="24" viewBox="0 0 24 24" fill="none" xmlns="http://www.w3.org/2000/svg">
<path d="M7.73633 8.29297C8.12686 7.90256 8.7599 7.90248 9.15039 8.29297L12.1504 11.293C12.3379 11.4805 12.4434 11.7348 12.4434 12C12.4434 12.2652 12.3378 12.5195 12.1504 12.707L9.15039 15.707C8.7599 16.0975 8.12686 16.0974 7.73633 15.707C7.34581 15.3165 7.34581 14.6835 7.73633 14.293L10.0293 12L7.73633 9.70703C7.34581 9.31651 7.34581 8.68349 7.73633 8.29297Z" fill="black"/>
<path d="M12.7363 8.29297C13.1269 7.90256 13.7599 7.90248 14.1504 8.29297L17.1504 11.293C17.3379 11.4805 17.4434 11.7348 17.4434 12C17.4434 12.2652 17.3378 12.5195 17.1504 12.707L14.1504 15.707C13.7599 16.0975 13.1269 16.0974 12.7363 15.707C12.3458 15.3165 12.3458 14.6835 12.7363 14.293L15.0293 12L12.7363 9.70703C12.3458 9.31651 12.3458 8.68349 12.7363 8.29297Z" fill="black"/>
<path fill-rule="evenodd" clip-rule="evenodd" d="M12 2C17.5228 2 22 6.47715 22 12C22 17.5228 17.5228 22 12 22C6.47715 22 2 17.5228 2 12C2 6.47715 6.47715 2 12 2ZM12 4C7.58172 4 4 7.58172 4 12C4 16.4183 7.58172 20 12 20C16.4183 20 20 16.4183 20 12C20 7.58172 16.4183 4 12 4Z" fill="black"/>
</svg>

<svg xmlns="http://www.w3.org/2000/svg" width="24" height="24" fill="none" viewBox="0 0 24 24"><path fill="#000" fill-rule="evenodd" d="M22 12c0-5.5228-4.4772-10-10-10S2 6.4772 2 12s4.4772 10 10 10 10-4.4772 10-10M4 12c0-4.4183 3.5817-8 8-8s8 3.5817 8 8-3.5817 8-8 8-8-3.5817-8-8m3.7363-3.707c.3906-.3904 1.0236-.3905 1.4141 0l3 3a1 1 0 0 1 .293.707c0 .2652-.1056.5195-.293.707l-3 3c-.3905.3905-1.0235.3904-1.414 0a.9996.9996 0 0 1 0-1.414L10.0292 12l-2.293-2.293c-.3905-.3905-.3905-1.0235 0-1.414m5 0c.3906-.3904 1.0236-.3905 1.4141 0l3 3a1 1 0 0 1 .293.707c0 .2652-.1056.5195-.293.707l-3 3c-.3905.3905-1.0235.3904-1.4141 0s-.3905-1.0235 0-1.414L15.0293 12l-2.293-2.293c-.3905-.3905-.3905-1.0235 0-1.414"/></svg>
